src/icons/outline/users/contact.svg

<svg width="24" height="24" viewBox="0 0 24 24" fill="none" xmlns="http://www.w3.org/2000/svg">
<g clip-path="url(#clip0_4922_1036)">
<path fill-rule="evenodd" clip-rule="evenodd" d="M11.9551 9.25C13.6758 9.25009 15.0762 10.6404 15.0762 12.3604C15.076 13.4703 14.4925 14.443 13.6162 14.9932C15.474 15.6712 16.8066 17.451 16.8066 19.5303C16.8066 19.9402 16.4668 20.2803 16.0566 20.2803H7.85254C7.44253 20.2801 7.10258 19.9401 7.10254 19.5303C7.10254 17.451 8.43524 15.6712 10.293 14.9932C9.41676 14.443 8.83411 13.4702 8.83398 12.3604C8.83398 10.6404 10.2343 9.25 11.9551 9.25ZM11.9551 16.2002C10.3343 16.2002 9.02375 17.2903 8.68359 18.7803H15.2266C14.8964 17.2804 13.5757 16.2003 11.9551 16.2002ZM11.9551 10.75C11.0647 10.75 10.334 11.4704 10.334 12.3604C10.3342 13.2502 11.0648 13.9697 11.9551 13.9697C12.8453 13.9696 13.575 13.2501 13.5752 12.3604C13.5752 11.4704 12.8454 10.7501 11.9551 10.75Z" fill="#3C3B44"/>
<path fill-rule="evenodd" clip-rule="evenodd" d="M19.5186 6.54004C21.4693 6.54011 22.9999 8.05993 23 10.0098V19.5303C22.9999 21.4101 21.4093 22.9999 19.5186 23H4.48145C2.53071 22.9999 1.00014 21.4701 1 19.5303V10.0098C1.00013 8.05993 2.53071 6.54011 4.48145 6.54004H19.5186ZM4.48145 8.03027C3.351 8.03034 2.50098 8.88005 2.50098 10V19.5195C2.50098 20.6395 3.351 21.4902 4.48145 21.4902H19.5186C20.559 21.4902 21.499 20.5495 21.499 19.5195V10C21.499 8.94987 20.7517 8.13736 19.7266 8.04004L19.5186 8.03027H4.48145Z" fill="#3C3B44"/>
<path d="M19.5088 3.7207C19.9189 3.72083 20.2588 4.06078 20.2588 4.4707C20.2585 4.88041 19.9187 5.22058 19.5088 5.2207H4.38184C3.97181 5.2207 3.63211 4.88048 3.63184 4.4707C3.63184 4.0607 3.97165 3.7207 4.38184 3.7207H19.5088Z" fill="#3C3B44"/>
<path d="M17.2373 1C17.6475 1.00003 17.9873 1.34002 17.9873 1.75C17.9873 2.15998 17.6475 2.49997 17.2373 2.5H6.66211C6.25208 2.49981 5.91211 2.15989 5.91211 1.75C5.91211 1.34011 6.25208 1.00019 6.66211 1H17.2373Z" fill="#3C3B44"/>
</g>
<defs>
<clipPath id="clip0_4922_1036">
<rect width="24" height="24" fill="white"/>
</clipPath>
</defs>
</svg>

<svg xmlns="http://www.w3.org/2000/svg" width="24" height="24" fill="none" viewBox="0 0 24 24"><g fill="currentColor" clip-path="url(#a)"><path fill-rule="evenodd" d="M11.955 9.25c1.72 0 3.121 1.39 3.121 3.11a3.1 3.1 0 0 1-1.464 2.631c1.86.677 3.195 2.458 3.195 4.54 0 .41-.34.75-.75.75H7.853c-.41 0-.75-.34-.75-.75 0-2.081 1.334-3.863 3.194-4.54a3.1 3.1 0 0 1-1.463-2.63c0-1.72 1.4-3.111 3.121-3.111m0 6.95c-1.62 0-2.931 1.09-3.271 2.58h6.543c-.33-1.5-1.651-2.58-3.272-2.58m0-5.45c-.89 0-1.621.72-1.621 1.61s.73 1.61 1.621 1.61c.89 0 1.62-.72 1.62-1.61s-.73-1.61-1.62-1.61" clip-rule="evenodd"/><path fill-rule="evenodd" d="M19.519 6.54c1.95 0 3.48 1.52 3.481 3.47v9.52c0 1.88-1.59 3.47-3.481 3.47H4.48C2.53 23 1 21.47.999 19.53v-9.52c0-1.95 1.53-3.47 3.481-3.47zM4.48 8.03c-1.13 0-1.98.85-1.98 1.97v9.52c0 1.12.85 1.97 1.98 1.97h15.04c1.04 0 1.98-.94 1.98-1.97V10c0-1.12-.85-1.97-1.98-1.97z" clip-rule="evenodd"/><path d="M19.509 3.72c.41 0 .75.34.75.75s-.34.75-.75.75H4.382c-.41 0-.75-.34-.75-.75s.34-.75.75-.75zM17.237 1c.41 0 .75.34.75.75s-.34.75-.75.75H6.662c-.41 0-.75-.34-.75-.75s.34-.75.75-.75z"/></g><defs><clipPath id="a"><path fill="currentColor" d="M0 0h24v24H0z"/></clipPath></defs></svg>
